src/components/Icon/icons/female.svg

<svg
        width="24"
        height="24"
        viewBox="0 0 24 24"
        fill="none"
        xmlns="http://www.w3.org/2000/svg"
>
    <path d="M0 0H24V24H0V0Z" fill="white"/>
    <path
            fill-rule="evenodd"
            clip-rule="evenodd"
            d="M15.183 13.0604C14.4317 13.8117 13.4808 14.2418 12.501 14.3507L12.501 16H15V17H12.501L12.501 19.5H11.501V17H9V16H11.501V14.3507C10.5212 14.2418 9.5703 13.8117 8.819 13.0604C7.06164 11.303 7.06164 8.45375 8.819 6.69639C10.5764 4.93903 13.4256 4.93903 15.183 6.69639C16.9403 8.45375 16.9403 11.303 15.183 13.0604ZM9.5261 12.3532C10.8929 13.7201 13.109 13.7201 14.4759 12.3532C15.8427 10.9864 15.8427 8.77033 14.4759 7.4035C13.109 6.03666 10.8929 6.03666 9.5261 7.4035C8.15927 8.77033 8.15927 10.9864 9.5261 12.3532Z"
            fill="#333333"
    />
</svg>

<svg width="24" height="24" viewBox="0 0 24 24" fill="none">
    <path
            fillRule="evenodd"
            clipRule="evenodd"
            d="M15.183 13.06a4.481 4.481 0 01-2.682 1.29V16H15v1h-2.499v2.5h-1V17H9v-1h2.501v-1.65a4.5 4.5 0 113.682-1.29zm-5.657-.707a3.5 3.5 0 104.95-4.95 3.5 3.5 0 00-4.95 4.95z"
            fill="#333"
    />
</svg>
